X:1
T:Title
%%score { ( 1 4 ) | ( 2 3 ) }
L:1/8
M:4/4
K:G
V:1 treble nm="Grand Piano"
V:4 treble 
V:2 bass 
V:3 bass 
V:1
 z4 z2[Q:1/4=110] D2 | [B,DG]3 [B,DG] [B,DG][B,D][G,DG]A | B6 Bc | d3 d [Ac]2 [GB]2 | %4
[M:3/4] [GB]4 A2 |[M:1/4] D2 |[M:4/4] [B,DG]3 [B,DG] [B,DG][B,D][G,DG]A | B6 Bc | %8
 d3 [EGc] [DGB]2 [CFA]2 |[M:3/4] [B,G]6 |[M:1/4] Bc |[M:4/4] d6 e2 | d6 z2 | z d3 z4 | %14
 [DFA]6 [DGB][DAc] | B2 z2 z2 e2 | d6 z2 | z d3 z4 |[M:3/4] [G,B,DG]6 |] %19
V:2
 z4 z2 D,2 | G,3 D, B,,G,,B,,[D,F,D] | z4 z2[K:treble] [G,D]2 | %3
 [G,B,G]3 [G,B,G][K:bass] [F,D]2 [G,D]2 |[M:3/4] z2 z2 F2 |[M:1/4] D,2 | %6
[M:4/4] G,3 D, B,,G,,B,,[D,F,D] | z4 z2[K:treble] [G,D]2 | [G,B,G]3[K:bass] C, D,2 D,2 | %9
[M:3/4] [G,,G,]6 |[M:1/4][K:treble] [G,G][G,A,G] |[M:4/4] B,6 .[G,G]2 | [G,G]2 z2 z4[K:bass] | %13
 [G,DG] [B,G]3 [B,G]2 [G,DG]2 | D,2 D,>D, D,C,B,,A,, | z4 z2[K:treble] .[G,G]2 | %16
 [G,G]2 z2 z4[K:bass] | z [B,G]3[K:bass] z4 |[M:3/4] G,,6 |] %19
V:3
 x8 | x8 | [G,D]6[K:treble] z A, | x4[K:bass] x4 |[M:3/4] [D,D]6 |[M:1/4] x2 |[M:4/4] x8 | %7
 [G,D]6[K:treble] z A, | x3[K:bass] x5 |[M:3/4] x6 |[M:1/4][K:treble] x2 | %11
[M:4/4] [G,G]2 G,>G, G,2 C-[G,C] | B,->[G,B,-] [G,B,-][G,B,-] [G,B,]2[K:bass] B,,D, | z G, z2 z4 | %14
 x8 | G,,2 G,>G, G,2[K:treble] C-[G,C] | B,->[G,B,-] [G,B,-][G,B,-] [G,B,]2[K:bass] B,,D, | %17
 [G,DG]G, z2[K:bass] D,2 D,2 |[M:3/4] x6 |] %19
V:4
 x8 | x8 | x8 | x8 |[M:3/4] x6 |[M:1/4] x2 |[M:4/4] x8 | x8 | x8 |[M:3/4] x6 |[M:1/4] x2 | %11
[M:4/4] z2 G>G G2 z G | z z/ G/ GG G2 [DG][DFA] | .B2 G,G, d2 B2 | x8 | %15
 [B,d]2- [B,-Gd-]>[B,-Gd-] [B,Gd]2 z G | z z/ G/ GG G2 [DG][DFA] | .B2 G,G, [DGB]2 [CDA]2 | %18
[M:3/4] x6 |] %19

